X:1
T:Title
%%score 1 { 2 | 3 }
L:1/8
Q:1/4=102
M:9/8
K:G
V:1 treble nm="Grand Piano, Soprano"
V:2 bass nm="Choir Pad, Bass"
V:3 bass 
V:1
 [DB][CA][DB] [DG]3 [DG]3 | [GB][FA]G [FA]3 [Fd]3 | [Gd][Gd][Ge] [Gd]3 [GB]3 | G[FA][GB] [FA]6 | %4
w: By~James~F.~Boozer * * * *||||
 [GB][FA]G [Gd]3 [Gd]3 | [Gc][Gd][Ge] [Gd]3 [GB]3 | [DG][GB][Ge] [Gd]3 [GB]3 | %7
w: |||
 [FA][GB][DFA] [DG]6 | [Gd][Gd][Gd] [Ge]3 [Gc]3 | [Gc][Gd][Ge] [Gd]3 [GB]3 | %10
w: |||
 [DB][DA][DG] [Gd]3 [Gd]3 | [Ge][Gd][GB] [FA]6 | [GB][FA]G [Gd]3 [Gd]3 | [Gc][Gd][Ge] [Gd]3 [GB]3 | %14
w: ||||
 [DG][GB][Ge] [Gd]3 [GB]3 | [FA][GB][DFA] [DG]6- | [DG]3 z3 z3 |] %17
w: |||
V:2
 G,G,G, B,3 B,3 | DCB, D3 A,3 | B,B,C B,3 D3 | DDD D6 | DC[K:bass]B, B,3 B,3 | %5
 A,B,[K:treble]C B,3 D3 | B,DC B,3 D3 | CDC[K:bass] B,6 | B,B,B, C3[K:treble] E3 | EB,C B,3 D3 | %10
 DC[K:bass]B, B,3 D3 | CB,[K:treble]D D6 | DCB,[K:bass] B,3 B,3 | A,B,C B,3[K:treble] D3 | %14
 B,DC B,3 D3 | CDC B,6- | B,3 z3 z3 |] %17
V:3
 z3 G,3 G,3 | G,D,E, D,3 D,3 | G,G,G, G,3 G,3 | B,A,G, D,6 | D,D,D, G,3 G,3 | G,G,G, G,3 G,3 | %6
 G,G,G, G,3 G,3 | D,D,D, [G,,G,]6 | G,G,G, C,3 C,3 | C,C,C, G,3 G,3 | G,G,G, G,3 B,3 | G,G,G, D,6 | %12
 D,D,D, G,3 G,3 | G,G,G, G,3 G,3 | G,G,G, G,3 G,3 | D,D,D, [G,,G,]6- | [G,,G,]3 z3 z3 |] %17

